X: 1982
T: Yemeni Bağlamış Telli Başına
C: Ali Ulvi Baradan
O: Turkey
F: http://compmusic.upf.edu/node/140
N: nihavent--fantezi--duyek--yemeni_baglamis--ali_ulvi_baradan
N: makam= nihavent
N: form= fantezi
N: usul= duyek = 8/4
M: 8/4
L: 1/16
K: C _B _e  
Q: 1/4=93
%%MIDI tuningsystem comma53
g2 g2 d2 d2  | c2 B A B A G2  | d e d c B A B c  | d8  | \
w:  ARANAĞME  |   |   |   | 
g2 g2 d2 d2  | 
w:  ARANAĞME  | 
c2 B A B A G2  | d e d c B2 A2  | G2 D2 G4  | \
w:   |   |   | 
D G2 G D2 G2  | D G2 G D2 G2  | 
w:   |   | 
D G2 G D2 G2  | D G2 G D2 G2  | z2 G A B2 c2  | \
w:   |   |  Ye me ni  bağ  | 
d2 B4 d2  | c2 B A A2 B2  | 
w:  la mış   |  tel li  *  ba şı  | 
G8  | G2 A2 B2 c2  | f2 f6  | e d3 c2 e2  | d8  | \
w:  na    |  Zü lüf le ri   |  düş müş   |  hi lal  ka şı  |  na    | 
z2 G A B2 c2  | d2 B4 d2  | c2 B A A2 B2  | 
w:  Ye me ni  bağ  |  la mış   |  tel li  *  ba şı  | 
G8  | G2 A2 B2 c2  | f2 f6  | e d3 c2 e2  | d8  | \
w:  na    |  Zü lüf le ri   |  düş müş   |  hi lal  ka şı  |  na    | 
f2 f2 f e f2  | g2 g4 d2  | e3 d c2 e2  | 
w:  He nüz  gir *  miş   |  on dört   |  on beş  ya şı  | 
d6 z2  | c2 c2 B A B2  | d2 B4 d2  | c2 B A A2 B2  | \
w:  na    |  Göz le ri  *  sür  |  me li   |  köy lü  *  gü ze  | 
G6 z2  | f2 f2 f e f2  | 
w:  li    |  He nüz  gir *  miş   | 
g2 g4 d2  | e3 d c2 e2  | d6 z2  | c2 c2 B A B2  | \
w:  on dört   |  on beş  ya şı  |  na    |  Göz le ri  *  sür  | 
d2 B4 d2  | c2 B A A2 B2  | 
w:  me li   |  köy lü  *  gü ze  | 
G6 z2  | g2 g2 d2 d2  | c2 B A B A G2  | \
w:  li    |  ARANAĞME  |   | 
d e d c B A B c  | d8  | 
w:   |   | 
g2 g2 d2 d2  | c2 B A B A G2  | d e d c B2 A2  | \
w:  ARANAĞME  |   |   | 
G2 D2 G4  | D G2 G D2 G2  | 
w:   |   | 
D G2 G D2 G2  | D G2 G D2 G2  | D G2 G D2 G2  | \
w:   |   |   | 
z2 G A B2 c2  | d2 B4 d2  | 
w:  Ye me ni  bağ  |  la mış   | 
c2 B A A2 B2  | G8  | G2 A2 B2 c2  | f2 f6  | \
w:  tel li  *  ba şı  |  na    |  Zü lüf le ri   |  düş müş   | 
e d3 c2 e2  | d8  | z2 G A B2 c2  | 
w:  hi lal  ka şı  |  na    |  Ye me ni  bağ  | 
d2 B4 d2  | c2 B A A2 B2  | G8  | G2 A2 B2 c2  | \
w:  la mış   |  tel li  *  ba şı  |  na    |  Zü lüf le ri   | 
f2 f6  | e d3 c2 e2  | d8  | f2 f2 f e f2  | 
w:  düş müş   |  hi lal  ka şı  |  na    |  He nüz  gir *  miş   | 
g2 g4 d2  | e3 d c2 e2  | d6 z2  | c2 c2 B A B2  | \
w:  on dört   |  on beş  ya şı  |  na    |  Göz le ri  *  sür  | 
d2 B4 d2  | c2 B A A2 B2  | 
w:  me li   |  köy lü  *  gü ze  | 
G6 z2  | f2 f2 f e f2  | g2 g4 d2  | e3 d c2 e2  | \
w:  li    |  He nüz  gir *  miş   |  on dört   |  on beş  ya şı  | 
d6 z2  | c2 c2 B A B2  | 
w:  na    |  Göz le ri  *  sür  | 
d2 B4 d2  | c2 B A A2 B2  | G6 z2  | |


